X: 15393
T: Glass Of Punch, The
R: reel
M: 4/4
K: Gmajor
|:~G3A ~B3A|GABG AGED|~G3A ~B3A|1 GBdB A2BA:|2 GBdB A2GA||
|:BE~E2 BGdA|BEED A2GA|BE~E2 ~B3A|1 GBdB A2GA:|2 GBdB A2BA||

